X: 29138
T: Ness Bothan
R: jig
M: 6/8
K: Dmajor
|:FDD EDD|FAA BAA|dff edB|ABA FEE|
FDD EDD|FAA BAA|def edB|1 Add d2 A:|2 Add d2 g||
|:faa fee|fdd Bdd|faa fdd|faf e2 g|
faa fee|fdd Bdd|faa fee|1 fdd d2 g:|2 fdd d3||

